images/ProcessIcons/Brand Positioning.svg

<svg width="24" height="24" viewBox="0 0 24 24" fill="none" xmlns="http://www.w3.org/2000/svg">
<path d="M11.607 2.34188C11.7162 2.24705 11.8559 2.19482 12.0005 2.19482C12.1451 2.19482 12.2849 2.24705 12.394 2.34188L14.342 4.03388C14.4027 4.08663 14.4733 4.12665 14.5498 4.15156C14.6262 4.17647 14.7069 4.18576 14.787 4.17888L17.359 3.95488C17.503 3.94251 17.6466 3.98254 17.7635 4.0676C17.8803 4.15267 17.9625 4.27705 17.995 4.41788L18.577 6.93188C18.595 7.01044 18.6286 7.08458 18.6758 7.14987C18.7231 7.21516 18.783 7.27026 18.852 7.31188L21.064 8.64188C21.1878 8.71641 21.2805 8.8331 21.3252 8.97051C21.3698 9.10793 21.3634 9.25684 21.307 9.38988L20.299 11.7659C20.2677 11.8399 20.2515 11.9195 20.2515 11.9999C20.2515 12.0803 20.2677 12.1599 20.299 12.2339L21.307 14.6099C21.3636 14.743 21.3702 14.8922 21.3256 15.0298C21.2809 15.1675 21.188 15.2843 21.064 15.3589L18.852 16.6889C18.7831 16.7304 18.7233 16.7853 18.676 16.8504C18.6288 16.9156 18.5951 16.9895 18.577 17.0679L17.995 19.5819C17.9625 19.7227 17.8803 19.8471 17.7635 19.9322C17.6466 20.0172 17.503 20.0572 17.359 20.0449L14.787 19.8209C14.707 19.8139 14.6263 19.823 14.5499 19.8477C14.4735 19.8725 14.4028 19.9123 14.342 19.9649L12.393 21.6579C12.2839 21.7527 12.1441 21.8049 11.9995 21.8049C11.8549 21.8049 11.7152 21.7527 11.606 21.6579L9.65801 19.9649C9.59726 19.9123 9.52657 19.8725 9.45012 19.8477C9.37368 19.823 9.29305 19.8139 9.21302 19.8209L6.64101 20.0449C6.49702 20.0572 6.35339 20.0172 6.23655 19.9322C6.1197 19.8471 6.03749 19.7227 6.00501 19.5819L5.42301 17.0679C5.40505 16.9893 5.37144 16.9152 5.32419 16.8499C5.27694 16.7846 5.21702 16.7295 5.14801 16.6879L2.93601 15.3579C2.81224 15.2834 2.71951 15.1667 2.67487 15.0292C2.63023 14.8918 2.63667 14.7429 2.69301 14.6099L3.70101 12.2339C3.73237 12.1599 3.74853 12.0803 3.74853 11.9999C3.74853 11.9195 3.73237 11.8399 3.70101 11.7659L2.69301 9.38988C2.63639 9.25672 2.6298 9.10758 2.67446 8.96994C2.71911 8.8323 2.812 8.71544 2.93601 8.64088L5.14801 7.31088C5.21692 7.26937 5.27677 7.21442 5.32401 7.14932C5.37126 7.08421 5.40492 7.01026 5.42301 6.93188L6.00501 4.41788C6.03749 4.27705 6.1197 4.15267 6.23655 4.0676C6.35339 3.98254 6.49702 3.94251 6.64101 3.95488L9.21302 4.17888C9.29312 4.18576 9.37379 4.17647 9.45024 4.15156C9.52668 4.12665 9.59734 4.08663 9.65801 4.03388L11.607 2.34188V2.34188Z" stroke="black" stroke-width="1.5"/>
<path d="M9 13L11 15L16 10" stroke="black" stroke-width="1.5" stroke-linecap="round" stroke-linejoin="round"/>
</svg>

<svg xmlns="http://www.w3.org/2000/svg" width="24" height="24" fill="none" stroke="#000" stroke-width="1.5" xmlns:v="https://vecta.io/nano"><path d="M11.607 2.342a.6.6 0 0 1 .787 0l1.948 1.692a.6.6 0 0 0 .445.145l2.572-.224a.6.6 0 0 1 .636.463l.582 2.514a.6.6 0 0 0 .275.38l2.212 1.33a.6.6 0 0 1 .243.748l-1.008 2.376a.6.6 0 0 0 0 .468l1.008 2.376a.6.6 0 0 1-.243.749l-2.212 1.33a.6.6 0 0 0-.275.379l-.582 2.514a.6.6 0 0 1-.636.463l-2.572-.224a.6.6 0 0 0-.445.144l-1.949 1.693a.6.6 0 0 1-.787 0l-1.948-1.693a.6.6 0 0 0-.445-.144l-2.572.224a.6.6 0 0 1-.636-.463l-.582-2.514a.6.6 0 0 0-.275-.38l-2.212-1.33a.6.6 0 0 1-.243-.748l1.008-2.376a.6.6 0 0 0 0-.468L2.693 9.39a.6.6 0 0 1 .243-.749l2.212-1.33a.6.6 0 0 0 .275-.379l.582-2.514a.6.6 0 0 1 .636-.463l2.572.224a.6.6 0 0 0 .445-.145l1.949-1.692h0z"/><path d="M9 13l2 2 5-5" stroke-linecap="round" stroke-linejoin="round"/></svg>
